X:513
T:Reel 513
M:4/4
K:Gmaj
L:1/8
ge|dBge dBGB|dBge dBGB|dBgB dBGB|cefg abc'a|bd'gb dbgb|dBgB dedB|ceec BddB|cedB A2|z2|bagb agfa|bgge dBGc'|bagb agfd| (3efg dB c2BA|bagb agfa|gfge dcBG|BAGg bagf| (3efg dB G2|
